assets/icon-plane.svg

<svg
  class="icon icon-accordion icon-plane"

  focusable="false"
  xmlns="http://www.w3.org/2000/svg"


  viewBox="0 0 20 20"
>
  <path d="M16.4116 2.07871C16.3845 2.09721 16.3574 2.11565 16.3303 2.13411C16.1517 2.25559 15.9719 2.37791 15.7837 2.52296L15.7773 2.52789C14.8355 3.23007 13.6039 4.27066 12.2818 5.4955C12.1614 5.60703 11.994 5.65239 11.8338 5.61687L3.68598 3.81033C3.60396 3.80009 3.57101 3.79608 3.53891 3.79608C3.32198 3.79608 3.11893 3.92321 3.0302 4.12886C2.92673 4.39247 3.02138 4.67552 3.23628 4.81149L3.24111 4.81454L8.61434 8.30083C8.741 8.38301 8.82374 8.51802 8.83947 8.66819C8.8552 8.81836 8.80223 8.96759 8.69534 9.07423L8.66991 9.09961C7.38122 10.4798 6.31043 11.7361 5.58838 12.7137C5.47003 12.8747 5.36378 13.0195 5.27879 13.1514C5.16553 13.3272 4.95486 13.4139 4.75068 13.3689L2.19767 12.8052C2.11507 12.7948 2.08257 12.7908 2.05053 12.7908C1.83353 12.7908 1.6304 12.918 1.54169 13.1236C1.44423 13.3719 1.52255 13.6375 1.71155 13.7811L4.70992 14.8869C4.84334 14.9361 4.9495 15.0398 5.00183 15.172L6.23217 18.2805C6.33749 18.4229 6.50021 18.5 6.6743 18.5C6.68974 18.5 6.70318 18.4991 6.71409 18.4977C6.75433 18.4624 6.80008 18.4337 6.84965 18.4128C7.09772 18.3083 7.23368 18.0443 7.17792 17.7789L7.17755 17.7772L6.60833 15.2112C6.56292 15.0066 6.65004 14.7953 6.82652 14.6821C6.90797 14.6299 6.97089 14.584 7.04582 14.5293C7.10751 14.4844 7.17733 14.4334 7.27233 14.3682C8.25973 13.6492 9.5053 12.5837 10.8878 11.2987L10.9132 11.2733C11.0198 11.1669 11.1687 11.1143 11.3185 11.13C11.4683 11.1457 11.603 11.2281 11.6853 11.3542L15.1827 16.7203C15.2864 16.8837 15.4603 16.9728 15.6474 16.9728C15.7137 16.9728 15.7958 16.9563 15.866 16.9273C16.1134 16.8225 16.2489 16.5588 16.1933 16.294L14.3782 8.1444C14.3425 7.9844 14.3876 7.8171 14.4987 7.69663C15.7202 6.37288 16.7705 5.15757 17.4604 4.21249L17.4689 4.20111C17.614 4.01381 17.7363 3.83484 17.8578 3.65697C17.8763 3.6299 17.8948 3.60285 17.9133 3.5758C18.0978 3.29428 18.3328 2.929 18.4428 2.55475C18.5482 2.19592 18.5158 1.92451 18.2922 1.70148C18.1713 1.58082 17.9849 1.5 17.7692 1.5C17.4882 1.5 17.1061 1.62056 16.4116 2.07871ZM11.1716 12.3976C9.92929 13.5361 8.79171 14.4994 7.85517 15.1808L7.84395 15.1889C7.79752 15.2208 7.73884 15.2628 7.67606 15.308C7.66979 15.3125 7.66348 15.3171 7.65713 15.3216L8.15558 17.5686C8.30356 18.2625 7.96934 18.9767 7.32384 19.2951C7.10254 19.4742 6.82781 19.5 6.6743 19.5C6.16465 19.5 5.66279 19.2521 5.36533 18.7835C5.34846 18.7569 5.33414 18.7288 5.32255 18.6996L4.15425 15.7478L1.30743 14.6979C1.27444 14.6858 1.24282 14.6701 1.2131 14.6513C0.56351 14.2403 0.341328 13.4303 0.615189 12.7472L0.618547 12.7388C0.868584 12.1463 1.44556 11.7908 2.05053 11.7908C2.15024 11.7908 2.24946 11.8035 2.31873 11.8124C2.32791 11.8136 2.33656 11.8147 2.34462 11.8157C2.36005 11.8177 2.37537 11.8203 2.39055 11.8237L4.63775 12.3198C4.68444 12.255 4.73137 12.1912 4.77648 12.1298L4.78291 12.1211L4.78359 12.1202C5.46491 11.1976 6.42874 10.0567 7.57005 8.81531L2.69897 5.65488C2.05143 5.24337 1.8302 4.43467 2.1037 3.75248L2.10706 3.74411C2.35707 3.15168 2.93387 2.79608 3.53891 2.79608C3.63888 2.79608 3.73821 2.8088 3.80785 2.81773C3.81678 2.81887 3.82523 2.81996 3.83313 2.82094C3.8487 2.82288 3.86417 2.82556 3.87949 2.82895L11.795 4.58399C13.0596 3.4216 14.2446 2.42349 15.1764 1.72853C15.3888 1.56496 15.5937 1.42564 15.7706 1.30538C15.7981 1.28666 15.8249 1.26841 15.851 1.2506L15.8574 1.24625C16.5966 0.758201 17.1851 0.5 17.7692 0.5C18.2292 0.5 18.6761 0.671867 18.9985 0.99357C19.5773 1.57101 19.566 2.27912 19.4022 2.83663C19.2467 3.36596 18.9337 3.8433 18.7575 4.11215L18.7411 4.13711C18.7231 4.16341 18.7045 4.19042 18.6855 4.21819C18.5656 4.39374 18.4268 4.59704 18.2639 4.80777C17.5744 5.7516 16.563 6.92641 15.411 8.182L17.1709 16.0836C17.3254 16.8078 16.9545 17.5539 16.2531 17.8493L16.2509 17.8503C16.0679 17.9263 15.8552 17.9728 15.6474 17.9728C15.1387 17.9728 14.6379 17.7259 14.3402 17.2591L11.1716 12.3976Z"/>
</svg>

<svg xmlns="http://www.w3.org/2000/svg" class="icon icon-accordion icon-plane" viewBox="0 0 20 20"><path d="m16.412 2.079-.082.055c-.178.122-.358.244-.546.389l-.007.005c-.941.702-2.173 1.743-3.495 2.968a.5.5 0 0 1-.448.12L3.686 3.81a1 1 0 0 0-.147-.014.55.55 0 0 0-.509.333.56.56 0 0 0 .206.682l.005.004L8.614 8.3a.5.5 0 0 1 .081.773L8.67 9.1c-1.289 1.38-2.36 2.636-3.082 3.614a9 9 0 0 0-.31.437.5.5 0 0 1-.527.218l-2.553-.564a1 1 0 0 0-.147-.014.55.55 0 0 0-.51.333.56.56 0 0 0 .17.657l2.999 1.106a.5.5 0 0 1 .292.285l1.23 3.108a.54.54 0 0 0 .482.218.5.5 0 0 1 .136-.085.56.56 0 0 0 .328-.634v-.002l-.57-2.566a.5.5 0 0 1 .219-.529c.081-.052.144-.098.219-.153.062-.045.131-.096.226-.16.988-.72 2.233-1.785 3.616-3.07l.025-.026a.5.5 0 0 1 .772.081l3.498 5.366a.54.54 0 0 0 .464.253.559.559 0 0 0 .546-.679l-1.815-8.15a.5.5 0 0 1 .12-.447c1.222-1.324 2.272-2.54 2.962-3.485l.009-.01c.145-.188.267-.367.389-.545l.055-.081c.185-.282.42-.647.53-1.021.105-.36.073-.63-.15-.854a.74.74 0 0 0-.524-.201c-.28 0-.663.12-1.357.579m-5.24 10.319c-1.243 1.138-2.38 2.101-3.317 2.783l-.011.008-.168.119-.019.014.499 2.247a1.56 1.56 0 0 1-.832 1.726c-.221.18-.496.205-.65.205-.51 0-1.011-.248-1.309-.716a.5.5 0 0 1-.042-.084l-1.169-2.952-2.847-1.05a.5.5 0 0 1-.094-.047c-.65-.41-.872-1.22-.598-1.904l.004-.008a1.554 1.554 0 0 1 1.7-.927l.026.004.046.008 2.247.496.138-.19.007-.009c.682-.923 1.646-2.064 2.787-3.306l-4.871-3.16c-.648-.412-.869-1.22-.595-1.903l.003-.008a1.554 1.554 0 0 1 1.7-.926q.014 0 .026.003l.046.008 7.916 1.755c1.265-1.162 2.45-2.16 3.381-2.855a12 12 0 0 1 .675-.478l.006-.005C16.597.758 17.185.5 17.77.5c.46 0 .907.172 1.23.494.578.577.567 1.285.403 1.843-.155.529-.468 1.006-.645 1.275l-.016.025-.055.081c-.12.176-.26.379-.422.59-.69.944-1.701 2.118-2.853 3.374l1.76 7.902a1.56 1.56 0 0 1-.918 1.765l-.002.001a1.6 1.6 0 0 1-.604.123c-.508 0-1.01-.247-1.307-.714z"/></svg>
